img/be-ico.svg

<svg xmlns="http://www.w3.org/2000/svg" viewBox="0 0 42 42"><path d="M17.9 19.9s3-.2 3-3.9c0-3.7-2.5-5.5-5.6-5.5H5v20.7h10.3s6.3.2 6.3-6.1c0-.1.3-5.2-3.7-5.2zm-8.3-5.8h5.8s1.4 0 1.4 2.2-.8 2.5-1.8 2.5H9.6v-4.7zM15 27.4H9.6v-5.5h5.8s2.1 0 2.1 2.8c-.1 2.5-1.6 2.7-2.5 2.7zm15-11.7c-7.6 0-7.6 7.9-7.6 7.9s-.5 7.9 7.6 7.9c0 0 6.8.4 6.8-5.5h-3.5s.1 2.2-3.2 2.2c0 0-3.5.2-3.5-3.6h10.3c0 .1 1.2-8.9-6.9-8.9zm3.1 6.2h-6.5s.4-3.2 3.5-3.2 3 3.2 3 3.2zm.9-10.2h-8.2v2.5H34v-2.5z"/></svg>

<?xml version="1.0" encoding="utf-8"?>
<!-- Generator: Adobe Illustrator 19.1.0, SVG Export Plug-In . SVG Version: 6.00 Build 0)  -->
<svg version="1.1" id="Capa_1" xmlns="http://www.w3.org/2000/svg" xmlns:xlink="http://www.w3.org/1999/xlink" x="0px" y="0px"
	 viewBox="0 0 42 42" style="enable-background:new 0 0 42 42;" xml:space="preserve">
<path d="M17.9,19.9c0,0,3-0.2,3-3.9c0-3.7-2.5-5.5-5.6-5.5H5v20.7h10.3c0,0,6.3,0.2,6.3-6.1C21.6,25,21.9,19.9,17.9,19.9z M9.6,14.1
	h5.8c0,0,1.4,0,1.4,2.2c0,2.2-0.8,2.5-1.8,2.5H9.6V14.1z M15,27.4H9.6v-5.5h5.8c0,0,2.1,0,2.1,2.8C17.4,27.2,15.9,27.4,15,27.4z
	 M30,15.7c-7.6,0-7.6,7.9-7.6,7.9s-0.5,7.9,7.6,7.9c0,0,6.8,0.4,6.8-5.5h-3.5c0,0,0.1,2.2-3.2,2.2c0,0-3.5,0.2-3.5-3.6h10.3
	C36.9,24.7,38.1,15.7,30,15.7z M33.1,21.9h-6.5c0,0,0.4-3.2,3.5-3.2C33.2,18.7,33.1,21.9,33.1,21.9z M34,11.7h-8.2v2.5H34L34,11.7
	L34,11.7z"/>
</svg>
